X:122
T:Frolick and Free
M:2/4
L:1/8
B:Thompson's Compleat Collection of 200 Favourite Country Dances, vol. 1 (London, 1757)
Z:Transcribed and edited by Flynn Titford-Mock, 2007
Z:abc's:AK/Fiddler's Companion
K:G
[G,2D2B2g2] fe|dcBA|[G,2D2B2g2] fe|fg (f/g/a)|[G,2D2B2g2] fe|dcBA|BGAF G2g2:|
|:BG (B/c/d)|(e/f/g) (B/c/d)|BGBd|ecAc|BG (B/c/d)|(e/f/g) (B/c/d)|BGAF|G2 g2:|

